X:1
T:Oh Susanna
L:1/8
Q:1/4=110
M:2/4
K:G
|:"G" z4 |"Em" z4 |"C" z4 |"D" z4 |
"G" z4 |"Em" z4 |"C" z4"D7" |"G" z4 ::
"C" c2 c2 |"C" ee- ee |"G" dd BG |"D7" A3 z |
"G" G2 F2 |"Em" E2 D2 |"C"C2"D7" D2 |"G" G2 z2 ::
"G"!p! [GB]4 |"Em" [EG]4 |"C" [ce]4 |"D" [cf]4 |
"G" [GB]4 |"Em" [EG]4 |"C" [ce]2"D7" [cf]2 |"G" [dg]4 ::
"C"!f! c2 c2 |"C" ee- ee |"G" dd BG |"D7" A3 z |
"G" G2 F2 |"Em" E2 D2 |"C" C2"D7" D2 |"G" G2 z2 ::
